X:222
T:score297
L:1/8
Q:1/4=120
M:4/4
I:linebreak $
K:C
 B4 cedc | B3 B c2 ^c2 | d4 ^cBcA | d3 f A2 d2 | c4 BABG | c3 G ^F2 G2 | B4 cBcG | f3 e d2 G2 | %8
 e2 c2 BABG | c4 z4 |] %10
